!!!COM: Richard Strauss
!!!CNT: Deutscher
!!!TXO: Deutsche 
!!!OTL: Die Verschwiegenen
!!!OPS: Opus 10
!!!ONM: No. 6
!!!LYR: Hermann v. Gilm
!!!ENC: Brian Bice
!!!YOR: Lieder, Complete Edition, vol. 1
!!!ODT: 1885
!!NB: Vocal melody and text only encoded.
**kern	**silbe
*clefG2	*
*k[]	*
*M2/4	*
=2	=2
8r	.
{8b	{Ich
16b	ha-
16b	-be
8ee	wohl,
=3	=3
8r	.
8b-	es
8.gg	sei
16ff	hier
=4	=4
4.g#}	laut}
{8g#	{vor
=5	=5
8a	al-
8a	-ler
8.ee	Welt
16b	ver-
=6	=6
4dd	-ku2n-
4cc}	-digt,}
=7	=7
8r	.
{8a	{gar
8a	vie-
8a	-len
=8	=8
8b-	heim-
8b-	-lich
8.ff	an-
16ee	-ver-
=9	=9
4a}	-traut,}
4r	.
=10	=10
{4gg	{was
8ff	du
8ee-	an
=11	=11
4.dd	mir
8b-	ge-
=12	=12
4f#	-su2n-
4g}	-digt;}
=13	=13
8r	.
{8g	{ich
[4g	sagt's
=14	=14
8g]	|
8g	dem
8a	gan-
8b-	-zen
=15	=15
4.ee	Blu-
8g	-men-
=16	=16
4.f}	-heer,}
8r	.
=17	=17
8r	.
{8a	{dem
[4dd	Veil-
=18	=18
8dd]	|
8dd	-chen
8ee	sagt'
8f	ich's
=19	=19
4ee	stil-
4b}	-le,}
=20	=20
8r	.
{8cc	{der
8cc	Ro-
8cc	-se
=21	=21
4.ee	laut
8r	.
=22	=22
8r	.
8ee	und
([4aa	lau-
=23	=23
8aa]	|
8ff)	|
8dd}	-ter}
{8a	{der
=24	=24
(2cc	gross-
=25	=25
8b	-a2u-
8a	-gi-
8g)	-gen
8e	Ka-
=26	=26
4d	-mil-
4c}	-le.}
=28	=28
{8b	{Doch
16b	hat's
16b	da-
4ee	-bei
=29	=29
8r	.
8b-	noch
8.gg	kei-
16ff	-ne
=30	=30
2g#}	Noth,}
=31	=31
4r	.
8r	.
{8a	{bleib'
=32	=32
([2ee-	mun-
=33	=33|
8ee-]	|
8a-)	-ter
8a-	nur
8g	und
=34	=34
4f#	hei-
4g}	-ter;}
=35	=35
4r	.
{8ee-	{die
16ee-	es
16ee-	ge-
=36	=36
4ff	-wusst,
4r	.
=37	=37
8r	.
8ff	sind
8een	al-
8dd	-le
=38	=38
4.aa}	tot}
8r	.
=39	=39
4r	.
{4ff	{und
=40	=40
8ee	sa-
8dd	-gens
8cc	nicht
8b	mehr
=41	=41
4ee	wei-
4a}	-ter.}
*-	*-
